X:1
T:Bredon Hill and Other Songs
T:Oh Fair Enough are Sky and Plain
T:Bredon Hill and Other Songs
T:George Butterworth
T:2. Oh Fair Enough are Sky and Plain
T:Alfred Edward Housman
T:Creative Commons copyright waiver (CC0 1.0 Universal)
T:Creative Commons copyright waiver (CC0 1.0 Universal)
T:Creative Commons copyright waiver (CC0 1.0 Universal)
C:George Butterworth
Z:Alfred Edward Housman
Z:Creative Commons copyright waiver (CC0 1.0 Universal)
L:1/8
Q:1/4=114
M:4/4
K:Bb
V:1 treble nm="Voice"
V:1
"^Molto moderato, espressivo e senza rigore" z8 | z8 | z2 c2 e3 d | B2 G2 F3 D | G2 z F D2 B,2 | %5
w: ||Oh fair e-|nough are sky and|plain, But I know|
 E3 E D4- | D2 z2 z2 z z | z8 | z4 z F F F | c6 A2 | F4 z2 z z | z8 | z8 | z8 | z8 | z8 | z8 | z8 | %18
w: fair- er far:|_||That in the|wa- ter|are;||||||||
 z8 | z8 | z8 | z8 | z8 | z2 z A,"^cresc.                  ed                    accel." D3 =E | %24
w: |||||In act up-|
 ^F =E F G A2 z A | A3 G =B3 A | =c8- |[Q:1/4=114]"^Tempo I" c2 z2 z4 | z8 | z8 | z8 | z8 | z8 | %33
w: on the cres- sy brink To|strip and dive and|drown;|_||||||
 z8 | z8 | z8 | z8 | z8 | z8 | z8 | z8 | z8 | z8 | z8 |] %44
w: |||||||||||

